Adwaita++/apps/scalable/amarok.svg

<svg enable-background="new" height="128" viewBox="0 0 128 128" width="128" xmlns="http://www.w3.org/2000/svg">
  <g transform="matrix(.86666673 0 0 .86666673 9.533387 -142.40002)">
    <path d="m132.07686 238.15385a69.230763 69.230763 0 0 1 -69.23076 69.23077 69.230763 69.230763 0 0 1 -69.2307765-69.23077 69.230763 69.230763 0 0 1 69.2307765-69.23076 69.230763 69.230763 0 0 1 69.23076 69.23076z" fill="#3b3627" opacity=".2"/>
    <rect fill="#d5d3cf" height="131.538" rx="64.615" width="129.231" x="-1.77" y="171.23"/>
    <path d="m132.07686 235.84616a69.230763 69.230763 0 0 1 -69.23076 69.23076 69.230763 69.230763 0 0 1 -69.2307765-69.23076 69.230763 69.230763 0 0 1 69.2307765-69.23077 69.230763 69.230763 0 0 1 69.23076 69.23077z" fill="#1a5fb4"/>
    <circle cx="62.846" cy="235.846" fill="#f6f5f4" r="62.308"/>
    <path d="m62.846215 173.53847a62.307692 62.307692 0 0 0 -62.30769159 62.30769 62.307692 62.307692 0 0 0 .04789 1.35104 62.307692 62.307692 0 0 1 62.25980659-61.35104 62.307692 62.307692 0 0 1 62.2598 60.95553 62.307692 62.307692 0 0 0 .0479-.95553 62.307692 62.307692 0 0 0 -62.307701-62.30769z" opacity=".1"/>
    <path d="m35.660156 107.88672a54.000005 54.000005 0 0 0 2.451172 1.50195 54.000005 54.000005 0 0 0 4.859375 2.34766 54.000005 54.000005 0 0 0 5.070313 1.85156 54.000005 54.000005 0 0 0 5.230468 1.33594 54.000005 54.000005 0 0 0 5.337891.80664 54.000005 54.000005 0 0 0 5.390625.26953 54.000005 54.000005 0 0 0 3.820312-.13477 54.000005 54.000005 0 0 0 5.357422-.65039 54.000005 54.000005 0 0 0 5.267578-1.18359 54.000005 54.000005 0 0 0 2.332032-.77539c-.025176-.16391-.111111-.28706-.09961-.4707.131854-2.11511.243369-4.89628.507813-7.27539.264591-2.37927 1.187947-22.339666 4.625-27.626958 3.436615-5.287005 13.260362-11.634019 16.697263-12.294921 3.43706-.660886 2.77539-1.982393 2.77539-3.171875 0-1.189474-.52763-3.833882-1.45312-4.230469-.92519-.396448-4.536927 1.98571-5.726564 2.25s-6.872681.659679-7.666016-.662109c-.793043-1.322083 6.412551-14.804383 7.337891-16.390626.925486-1.586381 1.322043-3.702376-.396485-5.949218-1.717791-2.247553-2.907466-4.494141-3.568359-4.494141-2.17987 0-6.41377 5.023363-8 5.816406-1.586232.7932-14.142394 9.782751-15.332031 11.369141-1.189636 1.586078-2.775906 2.245439-4.494141 2.113281-1.718231-.132071-7.151423-.186465-9.001953.871094-1.850828 1.057628-10.297139 9.704099-12.41211 10.761719-2.114831 1.057212-4.87533 1.600125-6.197265 1.732422-1.321641.131872-5.700986 5.010068-6.890625 5.935546-1.18963.925479-10.590321 4.992399-11.91211 5.785157-1.321935.793182 9.644235 11.901864 11.230469 12.166015 1.586226.264741-1.09259 6.283204-4.144531 6.283204-.251972 0 1.409625 5.605352 9.003906 12.113282z" opacity=".2" transform="matrix(1.1538461 0 0 1.1538461 -11.000061 164.307707)"/>
    <g fill="#1a5fb4" transform="translate(-.000524)">
      <path d="m16.766226 96.282182c.229434.328757 4.35939 1.671523 4.596088 1.995089 1.119118 1.410768 1.460959 1.748099 2.715354 3.040069 1.25429 1.29096 2.572342 2.85726 3.949219 4.01659 1.376921 1.16015 2.980433 2.08127 4.466305 3.09815 1.485886 1.01621 3.191086 2.63521 4.770991 3.49803 1.57965.86305 3.540325 1.47715 5.198233 2.17823 1.658181.70132 3.519828 1.14985 5.239742 1.68213 1.720126.53224 3.635225 1.99468 5.399897 2.35251 1.764735.35771 4.562833.28807 6.354465.46778 1.791259.17965 2.912665.43903 4.712909.43896 1.274629.00018 3.057152-.55306 4.328599-.64305 1.795532-.12737 3.583571-.006 5.357422-.31154.786372-.15832 1.738548-1.859 2.517086-2.0522.517279-.78842-1.515621-2.93623-1.423317-4.41012.131854-2.11511.243368-4.89628.507812-7.27539.264592-2.37927 1.1899-22.33966 4.626953-27.626951 3.436616-5.287005 13.258409-11.634019 16.695313-12.294922 3.437053-.660886 2.777344-1.984345 2.777344-3.173828 0-1.189474-.529591-3.831929-1.455079-4.228516-.925184-.396448-4.534972 1.983757-5.724609 2.248047s-6.874634.661632-7.667969-.660156c-.793042-1.322083 6.412551-14.804382 7.337891-16.390625.925487-1.586382 1.322044-3.702377-.396484-5.949219-1.717792-2.247553-2.907467-4.494141-3.56836-4.494141-2.179869 0-6.411817 5.023363-7.998047 5.816407-1.586231.793199-14.144347 9.780797-15.333984 11.367187-1.189635 1.586078-2.775905 2.247393-4.494141 2.115235-1.718231-.132072-7.149469-.186465-9 .871093-1.850827 1.057628-10.299092 9.7041-12.414062 10.761719-2.114832 1.057212-4.873377 1.598172-6.195313 1.730469-1.32164.131872-5.700986 5.010068-6.890625 5.935547-1.18963.925478-10.590321 4.994352-11.912109 5.787109-1.321935.793182 9.644235 11.899911 11.230469 12.164063 1.57297.262528-5.288011 7.847309-8.307993 7.946244z" fill="#1a5fb4" transform="matrix(1.1538461 0 0 1.1538461 -11.000061 164.3077)"/>
      <path d="m60.208785 229.73554s-6.042478-.92982-9.528968 2.55682c-3.486659 3.4865-6.508749 11.1565-6.275609 13.48089.2321 2.32439 7.20526-7.90264 10.226498-8.59966 3.021919-.69752 6.275784-5.81137 5.578079-7.43805z" fill="#fff"/>
    </g>
  </g>
</svg>

<svg xmlns="http://www.w3.org/2000/svg" xmlns:xlink="http://www.w3.org/1999/xlink" style="enable-background:new" width="128" height="128" version="1.0" viewBox="0 0 128 128">
 <title id="title4162">
  Adwaita Icon Template
 </title>
 <defs>
  <linearGradient id="linearGradient950">
   <stop style="stop-color:#9a9996" id="stop946" offset="0"/>
   <stop style="stop-color:#77767b" id="stop948" offset="1"/>
  </linearGradient>
  <linearGradient id="linearGradient1001" x1="1660.857" x2="1662.99" y1="806.297" y2="812.882" gradientTransform="matrix(1.8293937,-0.81599442,0.81599442,1.8293937,-3645.9624,100.02949)" gradientUnits="userSpaceOnUse" xlink:href="#linearGradient950"/>
  <clipPath id="clipPath5154" clipPathUnits="userSpaceOnUse">
   <circle cx="128" cy="924.362" r="109.647" style="fill:url(#radialGradient5158)"/>
  </clipPath>
  <clipPath id="clipPath977" clipPathUnits="userSpaceOnUse">
   <circle cx="128" cy="924.362" r="109.647" style="fill:url(#radialGradient5158)"/>
  </clipPath>
  <clipPath id="clipPath4688" clipPathUnits="userSpaceOnUse">
   <path d="m 106.42383,889.60156 c -2.2448,-0.0524 -4.09304,1.75264 -4.09375,3.99805 v 32.64453 32.64453 c -4e-5,3.07923 3.33305,5.004 6,3.46485 l 28.26953,-16.32227 28.27148,-16.32227 c 2.66559,-1.54001 2.66559,-5.38772 0,-6.92773 l -28.27148,-16.32227 -28.26953,-16.32226 c -0.58054,-0.3353 -1.23603,-0.51932 -1.90625,-0.53516 z" style="fill:url(#radialGradient4692);stroke:#a7003f;stroke-linecap:round;stroke-linejoin:round"/>
  </clipPath>
  <clipPath id="clipPath4564" clipPathUnits="userSpaceOnUse">
   <circle style="fill:url(#radialGradient4568)" cx="128" cy="924.362" r="109.647"/>
  </clipPath>
  <clipPath id="clipPath6215" clipPathUnits="userSpaceOnUse">
   <path d="m 105.17325,806.18572 c -3.06859,0.56361 -6.11393,1.24721 -9.129005,2.04923 -3.838255,1.06506 -7.62084,2.32142 -11.333578,3.76438 -3.712189,1.44307 -7.34989,3.07087 -10.899472,4.87732 -3.549153,1.80656 -7.005749,3.78947 -10.35684,5.94129 -3.351877,2.15253 -6.593991,4.47137 -9.714191,6.94783 -3.119992,2.47544 -6.114241,5.10535 -8.971529,7.87988 -0.367219,0.38909 -0.731819,0.78065 -1.093777,1.17464 2.60205,17.85956 16.832359,40.03752 30.863064,55.74236 -4.76734,8.84435 -7.265993,18.73329 -7.272057,28.78068 0.02104,2.87431 0.246096,5.7435 0.673482,8.58593 -20.257302,-9.18513 -43.077023,-26.53494 -52.798465,-47.36396 -0.440667,1.15171 -0.863474,2.31018 -1.268271,3.47498 -1.176789,3.80495 -2.162562,7.66637 -2.953625,11.56979 -0.79154,3.90311 -1.3874065,7.84335 -1.7853678,11.80598 -0.39733,3.96334 -0.5961891,7.94407 -0.5958321,11.92728 -4.394e-4,2.81936 0.098928,5.63785 0.2979155,8.45018 0.282275,3.97319 0.763088,7.92978 1.4406374,11.85493 0.625626,3.51826 1.408798,7.00668 2.347153,10.45473 16.778133,6.68355 43.114514,5.45001 63.748015,1.14301 6.818545,11.02763 16.987182,19.58379 29.018153,24.41667 -18.071844,12.93645 -44.490188,24.02095 -67.37308,22.03245 1.384097,1.665 2.813203,3.2921 4.285735,4.8794 2.774977,2.8571 5.691103,5.5737 8.737453,8.1395 3.046107,2.5658 6.218619,4.9777 9.505651,7.2266 3.287242,2.2488 6.684891,4.3319 10.180217,6.2413 3.495379,1.9096 7.084075,3.6433 10.752641,5.1944 3.66896,1.5509 7.413193,2.9174 11.218668,4.0942 1.438565,0.3959 2.884421,0.7648 4.336807,1.1066 14.138748,-11.1844 26.206378,-34.5828 32.780368,-54.56406 12.95816,-0.38251 25.45395,-4.90132 35.65955,-12.89544 2.15922,22.12638 -1.46693,50.5581 -14.64692,69.3832 3.06859,-0.5636 6.11393,-1.2473 9.129,-2.0493 3.83826,-1.0651 7.62084,-2.3214 11.33358,-3.7644 3.71219,-1.4431 7.34989,-3.0709 10.89947,-4.8773 3.54915,-1.8066 7.00575,-3.7895 10.35684,-5.9413 3.35188,-2.1525 6.59399,-4.4714 9.71419,-6.9478 3.11999,-2.4754 6.11424,-5.1054 8.97153,-7.8799 0.36722,-0.3891 0.73182,-0.7806 1.09378,-1.1746 -2.60204,-17.85957 -16.83236,-40.03755 -30.86307,-55.74238 4.76735,-8.84435 7.266,-18.7333 7.27207,-28.78069 -0.021,-2.8743 -0.24611,-5.74349 -0.6735,-8.58592 20.25731,9.18513 43.07704,26.53494 52.79848,47.36396 0.44067,-1.15171 0.86347,-2.31018 1.26827,-3.47499 1.17679,-3.80495 2.16256,-7.66636 2.95362,-11.56978 0.79154,-3.90311 1.38741,-7.84335 1.78537,-11.80598 0.39733,-3.96334 0.59619,-7.94408 0.59583,-11.92729 4.4e-4,-2.81936 -0.0989,-5.63784 -0.29791,-8.45017 -0.28228,-3.97319 -0.76309,-7.92978 -1.44064,-11.85493 -0.62776,-3.53416 -1.41449,-7.03823 -2.35779,-10.50154 -20.56165,-7.32804 -45.89823,-4.79548 -63.74906,-1.11372 -6.81835,-11.01918 -16.98234,-19.56874 -29.00647,-24.39915 18.07184,-12.93645 44.49019,-24.02091 67.37307,-22.03241 -1.38409,-1.66502 -2.8132,-3.2921 -4.28573,-4.87944 -2.77498,-2.85712 -5.6911,-5.57368 -8.73745,-8.13949 -3.04611,-2.56581 -6.21862,-4.97769 -9.50565,-7.22659 -3.28724,-2.24885 -6.68489,-4.3319 -10.18022,-6.24135 -3.49538,-1.90963 -7.08407,-3.64325 -10.75264,-5.19438 -3.66896,-1.55092 -7.41319,-2.91736 -11.21867,-4.09421 -1.42662,-0.39262 -2.86041,-0.75869 -4.30063,-1.09804 -14.14688,11.18369 -26.2293,34.57475 -32.8107,54.55552 -12.96018,0.38127 -25.4582,4.90015 -35.665394,12.89544 -2.15922,-22.12637 1.466931,-50.55807 14.646924,-69.38315 z" style="fill:url(#radialGradient6219)"/>
  </clipPath>
  <linearGradient id="linearGradient5498">
   <stop style="stop-color:#eeeeee" id="stop5500" offset="0"/>
   <stop style="stop-color:#eeeeee;stop-opacity:0" id="stop5502" offset="1"/>
  </linearGradient>
  <linearGradient id="XMLID_9_" x1="331.496" x2="409.855" y1="790.515" y2="688.751" gradientUnits="userSpaceOnUse">
   <stop id="stop147" offset="0" style="stop-color:#FFFFFF"/>
   <stop id="stop149" offset="1" style="stop-color:#193D6B"/>
  </linearGradient>
  <linearGradient id="XMLID_8_" x1="319.186" x2="373.125" y1="713.546" y2="626.006" gradientUnits="userSpaceOnUse">
   <stop id="stop140" offset="0" style="stop-color:#FFFFFF"/>
   <stop id="stop142" offset="1" style="stop-color:#193D6B"/>
  </linearGradient>
  <linearGradient id="XMLID_7_" x1="264.541" x2="335.096" y1="704.236" y2="612.605" gradientUnits="userSpaceOnUse">
   <stop id="stop133" offset="0" style="stop-color:#FFFFFF"/>
   <stop id="stop135" offset="1" style="stop-color:#193D6B"/>
  </linearGradient>
  <linearGradient id="XMLID_6_" x1="237.208" x2="328.185" y1="684.019" y2="565.868" gradientUnits="userSpaceOnUse">
   <stop id="stop126" offset="0" style="stop-color:#FFFFFF"/>
   <stop id="stop128" offset="1" style="stop-color:#193D6B"/>
  </linearGradient>
  <linearGradient id="XMLID_5_" x1="220.951" x2="278.145" y1="634.632" y2="560.355" gradientUnits="userSpaceOnUse">
   <stop id="stop119" offset="0" style="stop-color:#FFFFFF"/>
   <stop id="stop121" offset="1" style="stop-color:#193D6B"/>
  </linearGradient>
  <linearGradient id="XMLID_4_" x1="429.849" x2="480.12" y1="815.455" y2="643.308" gradientTransform="matrix(-1.1256295,0,0,1.1256295,1028.9091,-39.54673)" gradientUnits="userSpaceOnUse">
   <stop id="stop112" offset="0" style="stop-color:#FFFFFF"/>
   <stop id="stop114" offset="1" style="stop-color:#E5EAF2"/>
  </linearGradient>
  <radialGradient id="XMLID_25_" cx="375.214" cy="783.164" r="300.575" fx="375.214" fy="783.164" gradientTransform="matrix(1.1256295,0,0,1.1256295,-41.873391,-39.54673)" gradientUnits="userSpaceOnUse">
   <stop id="stop46" offset=".011" style="stop-color:#D2E8EC"/>
   <stop id="stop48" offset=".292" style="stop-color:#60A8CE"/>
   <stop id="stop50" offset=".458" style="stop-color:#4680A8"/>
   <stop id="stop52" offset=".677" style="stop-color:#2F5C84"/>
   <stop id="stop54" offset=".865" style="stop-color:#234970"/>
   <stop id="stop56" offset="1" style="stop-color:#1F426A"/>
  </radialGradient>
  <mask id="XMLID_23_" width="576.609" height="587.491" x="122.96" y="97.15" maskUnits="userSpaceOnUse">
   <g style="filter:url(#Adobe_OpacityMaskFilter)">
    <radialGradient id="XMLID_24_" cx="88.978" cy="-20.899" r="673.116" fx="88.978" fy="-20.899" gradientUnits="userSpaceOnUse">
     <stop id="stop34" offset=".309" style="stop-color:#FFFFFF"/>
     <stop id="stop36" offset="1" style="stop-color:#000000"/>
    </radialGradient>
    <ellipse style="fill:url(#XMLID_24_)" id="ellipse38" cx="295.895" cy="286.172" rx="512.934" ry="349.106"/>
   </g>
  </mask>
  <radialGradient id="radialGradient995" cx="88.978" cy="-20.899" r="673.116" fx="88.978" fy="-20.899" gradientUnits="userSpaceOnUse">
   <stop id="stop991" offset=".309" style="stop-color:#FFFFFF"/>
   <stop id="stop993" offset="1" style="stop-color:#000000"/>
  </radialGradient>
  <radialGradient id="XMLID_22_" cx="622.728" cy="621.173" r="510.719" fx="622.728" fy="621.173" gradientUnits="userSpaceOnUse">
   <stop style="stop-color:#FFFFFF" id="stop14" offset="0"/>
   <stop style="stop-color:#E6E6E6" id="stop16" offset=".281"/>
   <stop style="stop-color:#C0C0C0" id="stop18" offset=".751"/>
   <stop style="stop-color:#B2B2B2" id="stop20" offset="1"/>
  </radialGradient>
 </defs>
 <g id="layer1" transform="matrix(0.86666673,0,0,0.86666673,9.5333867,-142.40002)">
  <g id="layer9">
   <path d="M 132.07686,238.15385 A 69.230763,69.230763 0 0 1 62.8461,307.38462 69.230763,69.230763 0 0 1 -6.3846765,238.15385 69.230763,69.230763 0 0 1 62.8461,168.92309 a 69.230763,69.230763 0 0 1 69.23076,69.23076 z" style="opacity:0.2;fill:#3b3627"/>
   <rect style="fill:#d5d3cf" width="129.231" height="131.538" x="-1.77" y="171.23" rx="64.615" ry="64.615"/>
   <path style="fill:#1a5fb4" d="M 132.07686,235.84616 A 69.230763,69.230763 0 0 1 62.8461,305.07692 69.230763,69.230763 0 0 1 -6.3846765,235.84616 69.230763,69.230763 0 0 1 62.8461,166.61539 a 69.230763,69.230763 0 0 1 69.23076,69.23077 z"/>
   <circle style="fill:#f6f5f4" cx="62.846" cy="235.846" r="62.308"/>
   <path d="m 62.846215,173.53847 a 62.307692,62.307692 0 0 0 -62.30769159,62.30769 62.307692,62.307692 0 0 0 0.04789,1.35104 62.307692,62.307692 0 0 1 62.25980659,-61.35104 62.307692,62.307692 0 0 1 62.2598,60.95553 62.307692,62.307692 0 0 0 0.0479,-0.95553 62.307692,62.307692 0 0 0 -62.307701,-62.30769 z" style="opacity:0.1"/>
   <g transform="translate(6.6085859,1.3302167)" style="opacity:0.2">
    <path d="M 35.660156 107.88672 A 54.000005 54.000005 0 0 0 38.111328 109.38867 A 54.000005 54.000005 0 0 0 42.970703 111.73633 A 54.000005 54.000005 0 0 0 48.041016 113.58789 A 54.000005 54.000005 0 0 0 53.271484 114.92383 A 54.000005 54.000005 0 0 0 58.609375 115.73047 A 54.000005 54.000005 0 0 0 64 116 A 54.000005 54.000005 0 0 0 67.820312 115.86523 A 54.000005 54.000005 0 0 0 73.177734 115.21484 A 54.000005 54.000005 0 0 0 78.445312 114.03125 A 54.000005 54.000005 0 0 0 80.777344 113.25586 C 80.752168 113.09195 80.666233 112.9688 80.677734 112.78516 C 80.809588 110.67005 80.921103 107.88888 81.185547 105.50977 C 81.450138 103.1305 82.373494 83.170104 85.810547 77.882812 C 89.247162 72.595807 99.070909 66.248793 102.50781 65.587891 C 105.94487 64.927005 105.2832 63.605498 105.2832 62.416016 C 105.2832 61.226542 104.75557 58.582134 103.83008 58.185547 C 102.90489 57.789099 99.293153 60.171257 98.103516 60.435547 C 96.913879 60.699837 91.230835 61.095226 90.4375 59.773438 C 89.644457 58.451355 96.850051 44.969055 97.775391 43.382812 C 98.700877 41.796431 99.097434 39.680436 97.378906 37.433594 C 95.661115 35.186041 94.47144 32.939453 93.810547 32.939453 C 91.630677 32.939453 87.396777 37.962816 85.810547 38.755859 C 84.224315 39.549059 71.668153 48.53861 70.478516 50.125 C 69.28888 51.711078 67.70261 52.370439 65.984375 52.238281 C 64.266144 52.10621 58.832952 52.051816 56.982422 53.109375 C 55.131594 54.167003 46.685283 62.813474 44.570312 63.871094 C 42.455481 64.928306 39.694982 65.471219 38.373047 65.603516 C 37.051406 65.735388 32.672061 70.613584 31.482422 71.539062 C 30.292792 72.464541 20.892101 76.531461 19.570312 77.324219 C 18.248377 78.117401 29.214547 89.226083 30.800781 89.490234 C 32.387007 89.754975 29.708191 95.773438 26.65625 95.773438 C 26.404278 95.773438 28.065875 101.37879 35.660156 107.88672 z" transform="matrix(1.1538461,0,0,1.1538461,-17.608647,162.97749)"/>
   </g>
   <g transform="translate(-5.2356771e-4)" style="fill:#1a5fb4">
    <path style="fill:#1a5fb4" d="m 16.766226,96.282182 c 0.229434,0.328757 4.35939,1.671523 4.596088,1.995089 1.119118,1.410768 1.460959,1.748099 2.715354,3.040069 1.25429,1.29096 2.572342,2.85726 3.949219,4.01659 1.376921,1.16015 2.980433,2.08127 4.466305,3.09815 1.485886,1.01621 3.191086,2.63521 4.770991,3.49803 1.57965,0.86305 3.540325,1.47715 5.198233,2.17823 1.658181,0.70132 3.519828,1.14985 5.239742,1.68213 1.720126,0.53224 3.635225,1.99468 5.399897,2.35251 1.764735,0.35771 4.562833,0.28807 6.354465,0.46778 1.791259,0.17965 2.912665,0.43903 4.712909,0.43896 1.274629,1.8e-4 3.057152,-0.55306 4.328599,-0.64305 1.795532,-0.12737 3.583571,-0.006 5.357422,-0.31154 0.786372,-0.15832 1.738548,-1.859 2.517086,-2.0522 0.517279,-0.78842 -1.515621,-2.93623 -1.423317,-4.41012 0.131854,-2.11511 0.243368,-4.89628 0.507812,-7.27539 0.264592,-2.37927 1.1899,-22.33966 4.626953,-27.626951 3.436616,-5.287005 13.258409,-11.634019 16.695313,-12.294922 3.437053,-0.660886 2.777344,-1.984345 2.777344,-3.173828 0,-1.189474 -0.529591,-3.831929 -1.455079,-4.228516 -0.925184,-0.396448 -4.534972,1.983757 -5.724609,2.248047 -1.189637,0.26429 -6.874634,0.661632 -7.667969,-0.660156 -0.793042,-1.322083 6.412551,-14.804382 7.337891,-16.390625 0.925487,-1.586382 1.322044,-3.702377 -0.396484,-5.949219 -1.717792,-2.247553 -2.907467,-4.494141 -3.56836,-4.494141 -2.179869,0 -6.411817,5.023363 -7.998047,5.816407 -1.586231,0.793199 -14.144347,9.780797 -15.333984,11.367187 -1.189635,1.586078 -2.775905,2.247393 -4.494141,2.115235 -1.718231,-0.132072 -7.149469,-0.186465 -9,0.871093 -1.850827,1.057628 -10.299092,9.7041 -12.414062,10.761719 -2.114832,1.057212 -4.873377,1.598172 -6.195313,1.730469 -1.32164,0.131872 -5.700986,5.010068 -6.890625,5.935547 -1.18963,0.925478 -10.590321,4.994352 -11.912109,5.787109 -1.321935,0.793182 9.644235,11.899911 11.230469,12.164063 1.57297,0.262528 -5.288011,7.847309 -8.307993,7.946244 z" transform="matrix(1.1538461,0,0,1.1538461,-11.000061,164.3077)"/>
    <path d="m 60.208785,229.73554 c 0,0 -6.042478,-0.92982 -9.528968,2.55682 -3.486659,3.4865 -6.508749,11.1565 -6.275609,13.48089 0.2321,2.32439 7.20526,-7.90264 10.226498,-8.59966 3.021919,-0.69752 6.275784,-5.81137 5.578079,-7.43805 z" style="fill:#ffffff"/>
   </g>
  </g>
 </g>
</svg>
